X: 100388
P: THE CHORUS LANCERS QUADRILLES -- Part 2.
M: 2/4
L: 1/16
K: D
[|\
vd'2c'b a2d2 | d'2c'b a2a2 | e2a2e2a2 | fgfe d2d2 |\
d'2c'b a2d2 | d'2c'b a2a2 | e2a2 e2fe | d2z2 vd'2z2 |]
vF2A2 A4- | A2B^G A2f2- | f2g^d e4- | e2fe c2d2 |\


